X:381
T: Quanguo renmin youzhiqi
N: C1883
O: China,Guangdong Huiyang
S: II, 351, 2)]
R: Xiaodao, Shuochang, Yonghujiege]
M: 2/4
L: 1/16
K: C
d2d2d2d2 | e2c2d2Ac | d3ec3d | c4A4 |
d3ed2c2 | dcA2c3d | c3AG4 |
A3cd2e2 | e2G2cdC2 | A8

@@@ Tune index: 6936
